assets/clients/buyviu-black.svg

<svg width="100" height="26" viewBox="0 0 100 26" fill="none" xmlns="http://www.w3.org/2000/svg">
<g clip-path="url(#clip0)">
<path fill-rule="evenodd" clip-rule="evenodd" d="M99.7901 18.5621C99.496 18.7233 99.1191 18.862 98.6595 18.9784C98.1999 19.0947 97.7219 19.1529 97.2255 19.1529C96.3063 19.1529 95.5158 18.9247 94.854 18.4681C94.1921 18.0116 93.7601 17.3715 93.5579 16.548C92.6754 17.4969 91.8389 18.1906 91.0484 18.6293C90.2579 19.0679 89.4122 19.2872 88.5114 19.2872C86.9303 19.2872 85.7124 18.7546 84.8575 17.6893C84.0026 16.6241 83.5752 15.0531 83.5752 12.9762V9.48507H81.3415V6.28931H87.7668V12.9762C87.7668 13.764 87.9415 14.3817 88.2908 14.8293C88.6401 15.2768 89.2376 15.5006 90.0832 15.5006C91.1128 15.5006 92.225 14.8651 93.42 13.5939V9.48507H91.3793V6.28931H97.6116V15.0172C97.6116 15.5364 97.8414 15.796 98.301 15.796C98.5584 15.796 98.779 15.7602 98.9629 15.6886L99.7901 18.5621ZM76.4919 5.03145C75.7318 5.03145 75.0921 4.79643 74.573 4.3264C74.0539 3.85637 73.7943 3.26884 73.7943 2.56379C73.7943 1.81602 74.0539 1.20178 74.573 0.721067C75.0921 0.240353 75.7318 0 76.4919 0C77.3077 0 77.9704 0.240353 78.4803 0.721067C78.9901 1.20178 79.2451 1.81602 79.2451 2.56379C79.2451 3.26884 78.9855 3.85637 78.4664 4.3264C77.9473 4.79643 77.2891 5.03145 76.4919 5.03145ZM81.3415 15.6899V18.8679H72.1172V15.6899H74.66V9.46734H72.1172V6.28931H78.7717V15.6899H81.3415Z" fill="black"/>
<path fill-rule="evenodd" clip-rule="evenodd" d="M70.8592 9.48466H69.1761L63.5114 19.2872H61.1277L55.2667 9.48466L53.668 6.28906H61.4082V9.1356H59.7258L62.7541 14.6142L65.6428 9.1356H63.7919V6.28906H70.8592V9.48466Z" fill="black"/>
<path fill-rule="evenodd" clip-rule="evenodd" d="M52.6361 9.45589L47.8106 19.5152C46.8784 21.4845 45.8685 22.9171 44.781 23.8131C43.6934 24.709 42.4276 25.157 40.9836 25.157C40.216 25.157 39.526 25.0505 38.9136 24.8376C38.3013 24.6247 37.6296 24.2965 36.8984 23.853L38.4887 20.7926C39.4209 21.3426 40.2525 21.6176 40.9836 21.6176C41.7513 21.6176 42.4048 21.418 42.944 21.0188C43.4832 20.6196 43.9904 19.941 44.4657 18.983L39.2015 9.45589H37.6387V6.28906H45.3704V9.10994H43.5883L46.3575 14.8847L49.017 9.10994H47.3171V6.28906H54.0892L52.6361 9.45589Z" fill="black"/>
<path fill-rule="evenodd" clip-rule="evenodd" d="M37.3166 18.5618C37.0224 18.7229 36.6455 18.8617 36.1859 18.978C35.7263 19.0944 35.2483 19.1526 34.752 19.1526C33.8327 19.1526 33.0422 18.9243 32.3804 18.4678C31.7185 18.0112 31.2865 17.3712 31.0843 16.5476C30.2018 17.4965 29.3654 18.1903 28.5748 18.6289C27.7843 19.0676 26.9386 19.2869 26.0378 19.2869C24.4567 19.2869 23.2388 18.7542 22.3839 17.689C21.529 16.6237 21.1016 15.0527 21.1016 12.9759V9.48473H18.8679V6.28897H25.2932V12.9759C25.2932 13.7637 25.4679 14.3813 25.8172 14.8289C26.1665 15.2765 26.764 15.5003 27.6097 15.5003C28.6392 15.5003 29.7514 14.8647 30.9464 13.5936V9.48473H28.9057V6.28897H35.138V15.0169C35.138 15.5361 35.3678 15.7957 35.8274 15.7957C36.0848 15.7957 36.3054 15.7599 36.4893 15.6883L37.3166 18.5618ZM15.1544 9.38533C17.6301 10.1188 18.8679 11.6407 18.8679 13.951C18.8679 15.638 18.2308 16.949 16.9566 17.8842C15.6823 18.8193 13.8347 19.2869 11.4136 19.2869H0V15.7938H3.05819V3.91199H0V0.418945H10.8129C12.9427 0.418945 14.5673 0.886513 15.6869 1.82166C16.8064 2.75681 17.3661 3.98532 17.3661 5.50723C17.3661 7.1575 16.6289 8.45019 15.1544 9.38533ZM7.54717 3.77324V8.3854H9.85635C10.8767 8.3854 11.6554 8.20397 12.1924 7.84111C12.7294 7.47825 12.9979 6.87667 12.9979 6.03635C12.9979 5.23423 12.7652 4.65653 12.2998 4.30321C11.8344 3.9499 11.2884 3.77324 10.6619 3.77324H7.54717ZM11.3045 15.5133C13.5515 15.5133 14.6751 14.8011 14.6751 13.3768C14.6751 12.6646 14.4264 12.1439 13.9291 11.8145C13.4318 11.4851 12.6583 11.3204 11.6084 11.3204H7.54717V15.5133H11.3045Z" fill="black"/>
</g>
<defs>
<clipPath id="clip0">
<rect width="100" height="25.1572" fill="white"/>
</clipPath>
</defs>
</svg>

<svg width="100" height="26" fill="none" xmlns="http://www.w3.org/2000/svg"><g clip-path="url(#a)" fill-rule="evenodd" clip-rule="evenodd" fill="#000"><path d="M99.79 18.562c-.294.161-.67.3-1.13.416-.46.117-.938.175-1.434.175-.92 0-1.71-.228-2.372-.685-.662-.456-1.094-1.096-1.296-1.92-.883.949-1.72 1.643-2.51 2.081a5.148 5.148 0 0 1-2.537.658c-1.58 0-2.799-.532-3.653-1.598-.855-1.065-1.283-2.636-1.283-4.713v-3.49h-2.234V6.288h6.426v6.687c0 .788.175 1.406.524 1.853.35.448.947.672 1.792.672 1.03 0 2.142-.636 3.337-1.907V9.485h-2.04V6.29h6.232v8.728c0 .52.23.779.689.779.257 0 .478-.036.662-.107l.827 2.873ZM76.492 5.032c-.76 0-1.4-.236-1.919-.706a2.279 2.279 0 0 1-.779-1.762c0-.748.26-1.362.779-1.843.52-.48 1.159-.721 1.919-.721.816 0 1.478.24 1.988.721.51.48.765 1.095.765 1.843 0 .705-.26 1.292-.779 1.762s-1.177.705-1.974.705Zm4.85 10.658v3.178h-9.225V15.69h2.543V9.467h-2.543V6.29h6.655v9.4h2.57ZM70.86 9.485h-1.684l-5.665 9.802h-2.383l-5.861-9.802-1.599-3.196h7.74v2.847h-1.682l3.028 5.478 2.889-5.478h-1.851V6.289h7.067v3.196Z"/><path d="m52.636 9.456-4.825 10.06c-.933 1.969-1.943 3.401-3.03 4.297-1.088.896-2.353 1.344-3.797 1.344-.768 0-1.458-.107-2.07-.32-.613-.212-1.284-.54-2.016-.984l1.59-3.06c.933.55 1.764.825 2.496.825.767 0 1.42-.2 1.96-.6.54-.398 1.046-1.077 1.522-2.035l-5.264-9.527h-1.563V6.289h7.731v2.82h-1.782l2.77 5.776 2.659-5.775h-1.7V6.29h6.772l-1.453 3.166Z"/><path d="M37.317 18.562c-.295.16-.672.3-1.131.416-.46.116-.938.175-1.434.175-.92 0-1.71-.229-2.372-.685-.662-.457-1.094-1.097-1.296-1.92-.882.949-1.719 1.642-2.51 2.08a5.147 5.147 0 0 1-2.536.659c-1.581 0-2.8-.533-3.654-1.598-.855-1.065-1.282-2.636-1.282-4.713V9.485h-2.234V6.289h6.425v6.687c0 .788.175 1.405.524 1.853.35.447.947.671 1.793.671 1.03 0 2.141-.635 3.336-1.906v-4.11h-2.04V6.29h6.232v8.728c0 .52.23.779.69.779.257 0 .477-.036.661-.108l.828 2.874ZM15.154 9.385c2.476.734 3.714 2.256 3.714 4.566 0 1.687-.637 2.998-1.911 3.933-1.275.935-3.122 1.403-5.543 1.403H0v-3.493h3.058V3.912H0V.419h10.813c2.13 0 3.754.468 4.874 1.403 1.12.935 1.68 2.163 1.68 3.685 0 1.65-.738 2.943-2.213 3.878ZM7.547 3.773v4.612h2.31c1.02 0 1.798-.181 2.335-.544.537-.363.806-.964.806-1.805 0-.802-.233-1.38-.698-1.733-.466-.353-1.012-.53-1.638-.53H7.547Zm3.758 11.74c2.247 0 3.37-.712 3.37-2.136 0-.712-.249-1.233-.746-1.563-.497-.329-1.27-.494-2.32-.494H7.546v4.193h3.758Z"/></g><defs><clipPath id="a"><path fill="#fff" d="M0 0h100v25.157H0z"/></clipPath></defs></svg>
